dhis-2/dhis-support/dhis-support-system/src/main/resources/SVGs/hiv_self_test_outline.svg

<?xml version="1.0" encoding="UTF-8" standalone="no"?>
<!-- Created with Inkscape (http://www.inkscape.org/) -->
<svg id="svg8" xmlns:rdf="http://www.w3.org/1999/02/22-rdf-syntax-ns#" xmlns="http://www.w3.org/2000/svg" xmlns:osb="http://www.openswatchbook.org/uri/2009/osb" height="48" width="48" version="1.1" xmlns:cc="http://creativecommons.org/ns#" viewBox="0 0 12.7 12.7" xmlns:dc="http://purl.org/dc/elements/1.1/">
 <title id="title4753">UIO-icon</title>
 <metadata id="metadata5">
  <rdf:RDF>
   <cc:Work rdf:about="">
    <dc:format>image/svg+xml</dc:format>
    <dc:type rdf:resource="http://purl.org/dc/dcmitype/StillImage"/>
    <dc:title>UIO-icon</dc:title>
    <dc:creator>
     <cc:Agent>
      <dc:title>Joaquín Urbano</dc:title>
     </cc:Agent>
    </dc:creator>
    <dc:rights>
     <cc:Agent>
      <dc:title>GPL</dc:title>
     </cc:Agent>
    </dc:rights>
   </cc:Work>
  </rdf:RDF>
 </metadata>
 <g id="layer1" transform="translate(0,-284.3)" fill="#333">
  <path id="rect1844" d="m25.953 4.0039s-2.9397 3.0179-2.9395 4.7812c-0.0002222 1.7633 1.3264 3.1911 2.9629 3.1914 1.637 0.00051817 2.9612-1.4275 2.9609-3.1914 0.0002222-1.764-2.7752-4.8663-2.9844-4.7812zm0.0625 0.69141c0.6614 0.72141 2.4333 2.8765 2.3848 4.2402-0.025047 1.0898-0.86219 2.5705-2.4199 2.5195-1.5738 0.046726-2.4405-1.7106-2.4531-2.7617-0.014-1.1238 1.765-3.2006 2.488-3.998zm0.64062 4.2344c-0.50482 0-0.91406 0.40924-0.91406 0.91406-1e-8 0.50482 0.40924 0.91406 0.91406 0.91406s0.91406-0.40924 0.91406-0.91406c1e-8 -0.50482-0.40924-0.91406-0.91406-0.91406zm-0.03 0.5078c0.009763-0.00035225 0.019534-0.00035225 0.029297 0 0.22437 0 0.40625 0.18189 0.40625 0.40625 6e-8 0.22436-0.18188 0.40625-0.40625 0.40625s-0.40625-0.18189-0.40625-0.40625c-0.00055565-0.21341 0.1641-0.39086 0.37695-0.40625zm-3.873 0.97266c-4.67 2.41-9.273 4.777-13.938 7.184-1.698-1.776-3.3087-2.853-4.816-3.403v0.51367c1.4304 0.6168 2.8761 1.6982 4.3613 3.1289l-4.3613 2.254v0.58203l5.0586-2.6113 13.695-7.1348c-0.00047655-0.16057-0.00052563-0.38007 0-0.51367zm6.246 0.363c-0.071638 0.12183-0.20524 0.31541-0.29102 0.42773 0.88522 1.2923 0.36835 3.1529-1.8457 4.4805l-1.8027 0.91406-4.8418 2.5234-11.041 5.6914 0.24219 0.45312 10.596-5.4766c2.6289 4.8182 3.3145 5.2368 0.85742 6.4531l-8.666 4.4746 0.24219 0.45312 8.2012-4.248c2.22 3.1015 2.7546 4.6098 1.2773 5.541l-0.28516 0.14844-8.4355 4.3555 0.24219 0.45312 7.9707-4.1289c0.3711 0.73566 1.3104 1.6929 1.9277 2.5273 0.71938 1.1203-0.20465 1.9088-1.1074 2.4766l-9.853 5.708h1.0469c3.0598-1.7712 6.1294-3.5441 9.1367-5.3066 0.92089-0.55985 2.1015-1.7903 1.1504-3.1484-0.64818-0.87553-1.4975-1.8168-1.8359-2.4805l0.28516-0.14648c1.4805-0.85691 1.7478-2.5098-1.0547-6.2227 1.8257-1.0444 3.0358-1.0504-0.65234-7.123 1.6134-0.85049 3.2473-1.6919 4.8789-2.5312 0.68397-0.35184 1.367-0.70265 2.0488-1.0547 2.491-1.546 2.674-3.769 1.611-5.213zm-3.2637 8.8438v8.7676h0.74023v-4.2031h5.0098v4.2031h0.74609v-8.768h-0.74609v3.9375h-5.009v-3.9375zm8.8809 0v8.7676h0.742v-8.768zm2.1934 0 3.2637 8.7676h0.71094l3.2637-8.7676h-0.8125l-2.7598 7.6836-0.052734 0.1875-0.048828-0.1875-2.7578-7.6836z" transform="matrix(.26458 0 0 .26458 0 284.3)"/>
 </g>
</svg>

<svg width="48" height="48" viewBox="0 0 48 48" fill="none" xmlns="http://www.w3.org/2000/svg">
<path d="M25.9526 4.00391C25.9526 4.00391 23.013 7.02177 23.0132 8.78505C23.0129 10.5483 24.3395 11.9761 25.976 11.9764C27.613 11.9769 28.9372 10.5489 28.9369 8.78505C28.9371 7.02107 26.1617 3.91881 25.9525 4.00391H25.9526ZM26.0151 4.69531C26.6765 5.41671 28.4484 7.57178 28.3999 8.93546C28.3748 10.0252 27.5377 11.5059 25.98 11.4549C24.4062 11.5017 23.5396 9.74435 23.527 8.69326C23.513 7.56948 25.2919 5.4927 26.0149 4.69531H26.0151ZM26.6557 8.92966C26.1509 8.92966 25.7417 9.3389 25.7417 9.84371C25.7417 10.3485 26.1509 10.7578 26.6557 10.7578C27.1606 10.7578 27.5698 10.3485 27.5698 9.84371C27.5698 9.3389 27.1606 8.92966 26.6557 8.92966ZM26.6257 9.43745C26.6355 9.4371 26.6453 9.4371 26.655 9.43745C26.8794 9.43745 27.0613 9.61934 27.0613 9.8437C27.0613 10.0681 26.8794 10.2499 26.655 10.2499C26.4307 10.2499 26.2488 10.0681 26.2488 9.8437C26.2482 9.63029 26.4129 9.45284 26.6257 9.43745ZM22.7528 10.4101C18.0828 12.8201 13.4799 15.187 8.81496 17.594C7.11698 15.818 5.5063 14.741 3.99902 14.1911V14.7047C5.42941 15.3215 6.87509 16.4029 8.36027 17.8336L3.99902 20.0875V20.6696L9.05756 18.0583L22.7524 10.9236C22.7519 10.763 22.7519 10.5435 22.7524 10.4099L22.7528 10.4101ZM28.9987 10.7731C28.9271 10.8949 28.7935 11.0885 28.7077 11.2008C29.5929 12.4931 29.076 14.3537 26.862 15.6813L25.0593 16.5953L20.2176 19.1187L9.17674 24.81L9.41893 25.2631L20.0148 19.7866C22.6437 24.6047 23.3293 25.0233 20.8722 26.2396L12.2063 30.7142L12.4485 31.1673L20.6496 26.9193C22.8696 30.0208 23.4042 31.5291 21.9269 32.4603L21.6417 32.6087L13.2063 36.9641L13.4485 37.4173L21.4191 33.2884C21.7902 34.0241 22.7295 34.9813 23.3468 35.8157C24.0662 36.936 23.1421 37.7244 22.2394 38.2922L12.3865 44.0002H13.4334C16.4932 42.229 19.5627 40.4561 22.57 38.6936C23.4909 38.1338 24.6715 36.9034 23.7204 35.5453C23.0722 34.6698 22.2229 33.7285 21.8845 33.0648L22.1697 32.9183C23.6501 32.0614 23.9174 30.4086 21.115 26.6957C22.9407 25.6513 24.1507 25.6453 20.4626 19.5728C22.076 18.7223 23.7099 17.8809 25.3415 17.0416C26.0254 16.6898 26.7085 16.339 27.3903 15.9869C29.8812 14.441 30.0642 12.218 29.0012 10.774L28.9987 10.7731ZM25.7351 19.6168V28.3843H26.4753V24.1812H31.485V28.3843H32.2311V19.6164H31.485V23.5538H26.4761V19.6164L25.7351 19.6168ZM34.6158 19.6168V28.3843H35.3578V19.6164L34.6158 19.6168ZM36.8092 19.6168L40.0729 28.3843H40.7838L44.0475 19.6168H43.235L40.4752 27.3003L40.4225 27.4878L40.3736 27.3003L37.6159 19.6168H36.8092Z" fill="#333333"/>
</svg>
